public/design_7/images/stars.svg

<svg width="96" height="16" viewBox="0 0 96 16" fill="none" xmlns="http://www.w3.org/2000/svg">
<path d="M8.83553 0.475381L11.0805 4.13018L15.2594 5.13826C15.7795 5.26475 16.0989 5.78686 15.9723 6.30698C15.9361 6.45556 15.8679 6.59416 15.7674 6.71059L12.9802 9.97983L13.3136 14.2732C13.3537 14.8073 12.9521 15.2732 12.4179 15.3134C12.2393 15.3275 12.0666 15.2914 11.9159 15.2171L8.00011 13.5985L4.02399 15.2412C3.52802 15.444 2.96173 15.209 2.75896 14.713C2.70273 14.5744 2.67461 14.4239 2.68672 14.2732L3.02008 9.9799L0.232864 6.71066C-0.114592 6.30308 -0.0684154 5.69061 0.339239 5.34315C0.469836 5.23069 0.622388 5.16036 0.779047 5.12828L4.91976 4.13025L7.17283 0.463412C7.454 0.00561487 8.05238 -0.137022 8.51024 0.144144C8.6487 0.228423 8.75918 0.344855 8.83553 0.475381Z" fill="#FF8200"/>
<path d="M13.2152 13.006L13.3136 14.2731C13.3538 14.8073 12.9522 15.2732 12.418 15.3134C12.2394 15.3275 12.0667 15.2914 11.916 15.2171L8.00019 13.5985L4.02407 15.2411C3.5281 15.444 2.9618 15.209 2.75904 14.713C2.7028 14.5744 2.67469 14.4239 2.6868 14.2732L2.78524 13.0021C3.00805 13.4559 3.54828 13.6648 4.02414 13.47L7.55641 12.0121C7.87171 11.8816 8.16088 11.8936 8.44601 12.0121L11.916 13.4459C12.0667 13.5202 12.2393 13.5564 12.418 13.5423C12.7735 13.5161 13.0687 13.3032 13.2152 13.006Z" fill="#D06C04"/>
<path d="M28.8355 0.475381L31.0805 4.13018L35.2594 5.13826C35.7795 5.26475 36.0989 5.78686 35.9723 6.30698C35.9361 6.45556 35.8679 6.59416 35.7674 6.71059L32.9802 9.97983L33.3136 14.2732C33.3537 14.8073 32.9521 15.2732 32.4179 15.3134C32.2393 15.3275 32.0666 15.2914 31.9159 15.2171L28.0001 13.5985L24.024 15.2412C23.528 15.444 22.9617 15.209 22.759 14.713C22.7027 14.5744 22.6746 14.4239 22.6867 14.2732L23.0201 9.9799L20.2329 6.71066C19.8854 6.30308 19.9316 5.69061 20.3392 5.34315C20.4698 5.23069 20.6224 5.16036 20.779 5.12828L24.9198 4.13025L27.1728 0.463412C27.454 0.00561487 28.0524 -0.137022 28.5102 0.144144C28.6487 0.228423 28.7592 0.344855 28.8355 0.475381Z" fill="#FF8200"/>
<path d="M33.2153 13.006L33.3137 14.2731C33.3539 14.8073 32.9522 15.2732 32.4181 15.3134C32.2395 15.3275 32.0667 15.2914 31.916 15.2171L28.0002 13.5985L24.0241 15.2411C23.5282 15.444 22.9619 15.209 22.7591 14.713C22.7029 14.5744 22.6747 14.4239 22.6869 14.2732L22.7853 13.0021C23.0081 13.4559 23.5483 13.6648 24.0242 13.47L27.5565 12.0121C27.8718 11.8816 28.1609 11.8936 28.4461 12.0121L31.916 13.4459C32.0667 13.5202 32.2394 13.5564 32.4181 13.5423C32.7735 13.5161 33.0687 13.3032 33.2153 13.006Z" fill="#D06C04"/>
<path d="M48.8355 0.475381L51.0805 4.13018L55.2594 5.13826C55.7795 5.26475 56.0989 5.78686 55.9723 6.30698C55.9361 6.45556 55.8679 6.59416 55.7674 6.71059L52.9802 9.97983L53.3136 14.2732C53.3537 14.8073 52.9521 15.2732 52.4179 15.3134C52.2393 15.3275 52.0666 15.2914 51.9159 15.2171L48.0001 13.5985L44.024 15.2412C43.528 15.444 42.9617 15.209 42.759 14.713C42.7027 14.5744 42.6746 14.4239 42.6867 14.2732L43.0201 9.9799L40.2329 6.71066C39.8854 6.30308 39.9316 5.69061 40.3392 5.34315C40.4698 5.23069 40.6224 5.16036 40.779 5.12828L44.9198 4.13025L47.1728 0.463412C47.454 0.00561487 48.0524 -0.137022 48.5102 0.144144C48.6487 0.228423 48.7592 0.344855 48.8355 0.475381Z" fill="#FF8200"/>
<path d="M53.2153 13.006L53.3137 14.2731C53.3539 14.8073 52.9522 15.2732 52.4181 15.3134C52.2395 15.3275 52.0667 15.2914 51.916 15.2171L48.0002 13.5985L44.0241 15.2411C43.5282 15.444 42.9619 15.209 42.7591 14.713C42.7029 14.5744 42.6747 14.4239 42.6869 14.2732L42.7853 13.0021C43.0081 13.4559 43.5483 13.6648 44.0242 13.47L47.5565 12.0121C47.8718 11.8816 48.1609 11.8936 48.4461 12.0121L51.916 13.4459C52.0667 13.5202 52.2394 13.5564 52.4181 13.5423C52.7735 13.5161 53.0687 13.3032 53.2153 13.006Z" fill="#D06C04"/>
<path d="M68.8355 0.475381L71.0805 4.13018L75.2594 5.13826C75.7795 5.26475 76.0989 5.78686 75.9723 6.30698C75.9361 6.45556 75.8679 6.59416 75.7674 6.71059L72.9802 9.97983L73.3136 14.2732C73.3537 14.8073 72.9521 15.2732 72.4179 15.3134C72.2393 15.3275 72.0666 15.2914 71.9159 15.2171L68.0001 13.5985L64.024 15.2412C63.528 15.444 62.9617 15.209 62.759 14.713C62.7027 14.5744 62.6746 14.4239 62.6867 14.2732L63.0201 9.9799L60.2329 6.71066C59.8854 6.30308 59.9316 5.69061 60.3392 5.34315C60.4698 5.23069 60.6224 5.16036 60.779 5.12828L64.9198 4.13025L67.1728 0.463412C67.454 0.00561487 68.0524 -0.137022 68.5102 0.144144C68.6487 0.228423 68.7592 0.344855 68.8355 0.475381Z" fill="#FF8200"/>
<path d="M73.2153 13.006L73.3137 14.2731C73.3539 14.8073 72.9522 15.2732 72.4181 15.3134C72.2395 15.3275 72.0667 15.2914 71.916 15.2171L68.0002 13.5985L64.0241 15.2411C63.5282 15.444 62.9619 15.209 62.7591 14.713C62.7029 14.5744 62.6747 14.4239 62.6869 14.2732L62.7853 13.0021C63.0081 13.4559 63.5483 13.6648 64.0242 13.47L67.5565 12.0121C67.8718 11.8816 68.1609 11.8936 68.4461 12.0121L71.916 13.4459C72.0667 13.5202 72.2394 13.5564 72.4181 13.5423C72.7735 13.5161 73.0687 13.3032 73.2153 13.006Z" fill="#D06C04"/>
<path d="M88.8355 0.475381L91.0805 4.13018L95.2594 5.13826C95.7795 5.26475 96.0989 5.78686 95.9723 6.30698C95.9361 6.45556 95.8679 6.59416 95.7674 6.71059L92.9802 9.97983L93.3136 14.2732C93.3537 14.8073 92.9521 15.2732 92.4179 15.3134C92.2393 15.3275 92.0666 15.2914 91.9159 15.2171L88.0001 13.5985L84.024 15.2412C83.528 15.444 82.9617 15.209 82.759 14.713C82.7027 14.5744 82.6746 14.4239 82.6867 14.2732L83.0201 9.9799L80.2329 6.71066C79.8854 6.30308 79.9316 5.69061 80.3392 5.34315C80.4698 5.23069 80.6224 5.16036 80.779 5.12828L84.9198 4.13025L87.1728 0.463412C87.454 0.00561487 88.0524 -0.137022 88.5102 0.144144C88.6487 0.228423 88.7592 0.344855 88.8355 0.475381Z" fill="#FF8200"/>
<path d="M93.2153 13.006L93.3137 14.2731C93.3539 14.8073 92.9522 15.2732 92.4181 15.3134C92.2395 15.3275 92.0667 15.2914 91.916 15.2171L88.0002 13.5985L84.0241 15.2411C83.5282 15.444 82.9619 15.209 82.7591 14.713C82.7029 14.5744 82.6747 14.4239 82.6869 14.2732L82.7853 13.0021C83.0081 13.4559 83.5483 13.6648 84.0242 13.47L87.5565 12.0121C87.8718 11.8816 88.1609 11.8936 88.4461 12.0121L91.916 13.4459C92.0667 13.5202 92.2394 13.5564 92.4181 13.5423C92.7735 13.5161 93.0687 13.3032 93.2153 13.006Z" fill="#D06C04"/>
</svg>

<svg xmlns="http://www.w3.org/2000/svg" width="96" height="16" fill="none"><path fill="#FF8200" d="M8.836.475 11.08 4.13l4.178 1.008a.967.967 0 0 1 .508 1.573L12.98 9.98l.334 4.293a.971.971 0 0 1-1.398.944L8 13.598l-3.976 1.643a.97.97 0 0 1-1.337-.968L3.02 9.98.233 6.71a.97.97 0 0 1 .546-1.582l4.14-.998L7.174.463a.972.972 0 0 1 1.663.012"/><path fill="#D06C04" d="m13.215 13.006.099 1.267a.971.971 0 0 1-1.398.944L8 13.598l-3.976 1.643a.97.97 0 0 1-1.265-.528 1 1 0 0 1-.072-.44l.098-1.27a.97.97 0 0 0 1.24.467l3.531-1.458c.316-.13.605-.118.89 0l3.47 1.434c.15.074.323.11.502.096a.97.97 0 0 0 .797-.536"/><path fill="#FF8200" d="M28.836.475 31.08 4.13l4.178 1.008a.967.967 0 0 1 .508 1.573L32.98 9.98l.334 4.293a.971.971 0 0 1-1.398.944L28 13.598l-3.976 1.643a.97.97 0 0 1-1.265-.528 1 1 0 0 1-.072-.44l.333-4.293-2.787-3.27a.97.97 0 0 1 .546-1.582l4.14-.998L27.174.463a.972.972 0 0 1 1.663.012"/><path fill="#D06C04" d="m33.215 13.006.099 1.267a.971.971 0 0 1-1.398.944L28 13.598l-3.976 1.643a.97.97 0 0 1-1.337-.968l.098-1.27a.97.97 0 0 0 1.24.467l3.532-1.458c.315-.13.604-.118.89 0l3.469 1.434c.15.074.323.11.502.096a.97.97 0 0 0 .797-.536"/><path fill="#FF8200" d="M48.836.475 51.08 4.13l4.178 1.008a.967.967 0 0 1 .508 1.573L52.98 9.98l.334 4.293a.971.971 0 0 1-1.398.944L48 13.598l-3.976 1.643a.97.97 0 0 1-1.265-.528 1 1 0 0 1-.072-.44l.333-4.293-2.787-3.27a.97.97 0 0 1 .546-1.582l4.14-.998L47.174.463a.972.972 0 0 1 1.663.012"/><path fill="#D06C04" d="m53.215 13.006.099 1.267a.971.971 0 0 1-1.398.944L48 13.598l-3.976 1.643a.97.97 0 0 1-1.337-.968l.098-1.27a.97.97 0 0 0 1.24.467l3.532-1.458c.315-.13.604-.118.89 0l3.469 1.434c.15.074.323.11.502.096a.97.97 0 0 0 .797-.536"/><path fill="#FF8200" d="M68.836.475 71.08 4.13l4.178 1.008a.967.967 0 0 1 .508 1.573L72.98 9.98l.334 4.293a.971.971 0 0 1-1.398.944L68 13.598l-3.976 1.643a.97.97 0 0 1-1.265-.528 1 1 0 0 1-.072-.44l.333-4.293-2.787-3.27a.97.97 0 0 1 .546-1.582l4.14-.998L67.174.463a.972.972 0 0 1 1.662.012"/><path fill="#D06C04" d="m73.215 13.006.099 1.267a.971.971 0 0 1-1.398.944L68 13.598l-3.976 1.643a.97.97 0 0 1-1.337-.968l.098-1.27a.97.97 0 0 0 1.24.467l3.531-1.458c.316-.13.605-.118.89 0l3.47 1.434c.15.074.323.11.502.096a.97.97 0 0 0 .797-.536"/><path fill="#FF8200" d="M88.836.475 91.08 4.13l4.178 1.008a.967.967 0 0 1 .508 1.573L92.98 9.98l.334 4.293a.971.971 0 0 1-1.398.944L88 13.598l-3.976 1.643a.97.97 0 0 1-1.265-.528 1 1 0 0 1-.072-.44l.333-4.293-2.787-3.27a.97.97 0 0 1 .546-1.582l4.14-.998L87.174.463a.972.972 0 0 1 1.662.012"/><path fill="#D06C04" d="m93.215 13.006.099 1.267a.971.971 0 0 1-1.398.944L88 13.598l-3.976 1.643a.97.97 0 0 1-1.337-.968l.098-1.27a.97.97 0 0 0 1.24.467l3.531-1.458c.316-.13.605-.118.89 0l3.47 1.434c.15.074.323.11.502.096a.97.97 0 0 0 .797-.536"/></svg>
